toolkits/global/packages/global-context/img/icons/download-file.svg

<svg height="24" viewBox="0 0 24 24" width="24" xmlns="http://www.w3.org/2000/svg"><path d="m13.0046024 3c.5497429 0 1.3179837.32258606 1.707238.71184039l4.5763192 4.57631922c.3931386.39313859.7118404 1.16760135.7118404 1.71431369v8.9889965c0 1.1092806-.8945138 2.0085302-1.9940603 2.0085302h-12.01187942c-1.10128908 0-1.99406028-.8926228-1.99406028-1.9950893v-14.00982141c0-1.10185739.88743329-1.99508929 1.99961498-1.99508929zm0 1h-7.00498742c-.55709576 0-.99961498.44271433-.99961498.99508929v14.00982141c0 .5500396.44491393.9950893.99406028.9950893h12.01187942c.5463747 0 .9940603-.4506622.9940603-1.0085302v-8.9889965c0-.28393445-.2150684-.8033281-.4189472-1.00720691l-4.5763192-4.57631922c-.2038461-.20384606-.718603-.41894717-1.0001312-.41894717zm-1.5046024 4c.2761424 0 .5.21637201.5.49209595v6.14827645l1.7462789-1.7799092c.1933927-.1971171.5125222-.1945584.7001689-.0069117.1932998.1932999.1910058.5089949-.0027774.7027781l-2.5908927 2.5908927c-.1948337.1948337-.5117783.1937771-.7055687-.0000133l-2.59099083-2.5909908c-.19484111-.1948411-.19043735-.5151448-.00279066-.7027915.19329987-.1932998.50465175-.1923708.70018565.0069286l1.74638684 1.7800176v-6.14827695c0-.27177709.2319336-.49209595.5-.49209595z" fill="#666" fill-rule="evenodd"/></svg>

<?xml version="1.0" encoding="UTF-8"?>
<svg width="24px" height="24px" viewBox="0 0 24 24" version="1.1" xmlns="http://www.w3.org/2000/svg" xmlns:xlink="http://www.w3.org/1999/xlink">
    <!-- Generator: Sketch 63.1 (92452) - https://sketch.com -->
    <title>icon-icon / download-file</title>
    <desc>Created with Sketch.</desc>
    <g id="icon-/-download-file" stroke="none" stroke-width="1" fill="none" fill-rule="evenodd">
        <path d="M13.0046024,3 C13.5543453,3 14.3225861,3.32258606 14.7118404,3.71184039 L19.2881596,8.28815961 C19.6812982,8.6812982 20,9.45576096 20,10.0024733 L20,18.9914698 C20,20.1007504 19.1054862,21 18.0059397,21 L5.99406028,21 C4.8927712,21 4,20.1073772 4,19.0049107 L4,4.99508929 C4,3.8932319 4.88743329,3 5.99961498,3 L13.0046024,3 Z M13.0046024,4 L5.99961498,4 C5.44251922,4 5,4.44271433 5,4.99508929 L5,19.0049107 C5,19.5549503 5.44491393,20 5.99406028,20 L18.0059397,20 C18.5523144,20 19,19.5493378 19,18.9914698 L19,10.0024733 C19,9.71853885 18.7849316,9.1991452 18.5810528,8.99526639 L14.0047336,4.41894717 C13.8008875,4.21510111 13.2861306,4 13.0046024,4 Z M11.5,8 C11.7761424,8 12,8.21637201 12,8.49209595 L12,8.49209595 L12,14.6403724 L13.7462789,12.8604632 C13.9396716,12.6633461 14.2588011,12.6659048 14.4464478,12.8535515 C14.6397476,13.0468514 14.6374536,13.3625464 14.4436704,13.5563296 L14.4436704,13.5563296 L11.8527777,16.1472223 C11.657944,16.342056 11.3409994,16.3409994 11.147209,16.147209 L11.147209,16.147209 L8.55621817,13.5562182 C8.36137706,13.3613771 8.36578082,13.0410734 8.55342751,12.8534267 C8.74672738,12.6601269 9.05807926,12.6610559 9.25361316,12.8603553 L9.25361316,12.8603553 L11,14.6403729 L11,8.49209595 C11,8.22031886 11.2319336,8 11.5,8 Z" id="download-file" fill="#666666"></path>
    </g>
</svg>
